X:1
T:Non mi duol il morire
T:Girolamo Scotto
T:Source : Secondo Libro delle Muse a tre voci---Venetia---G.Scotto---1562. Editor : André Vierendeels (28/05/16).
T:Notes : Original clefs : C3, C4, F4 Editorial accidentals above the staff Original note values have been halved "Primi toni" 
T:Non mi duol il morire
T:©
T:©
T:©
T:©
T:©
C:Girolamo Scotto
Z:©
%%score [ 1 2 3 ]
L:1/8
Q:1/4=96
M:2/2
K:F
V:1 treble-8 nm="Tenor 1" snm="T 1"
V:2 treble-8 nm="Tenor 2" snm="T 2"
V:3 bass nm="Bass" snm="B"
V:1
 d4 e2 g2 | g2 f2 g3 f | e6 d2 | e4 f2 c2 | c2 c2 f4- | f4 e4- | e8 | z2 c2 f2 f2 | d4 e2 e2 | %9
w: Non mi duol|il mo- ri- *||* re, don-|na per vo-|* i,|_|don- na per|vo- i, ma|
 f2 c2 c2 c2- | cd e2 f2 d2 | g3 f/e/ d2 d2 | e2 f2 d2 d2 | e2 g3 f f2- | f2 _e2 d2 g2- | %15
w: ben di vo- stra|_ _ _ _ sor-|te, _ _ _ che|mo- rir vi ve-|dro de _ la|_ mia mor- te,|
 gf/e/ f2 g2 d2 | d2 d2 d2 e2 | f4 c3 d | e2 f2 B3 c | de f4 _e2 | d2 B2 c2 d2 |"^b" e2 d4 c2 | %22
w: _ _ _ _ _ per-|che veg- gen- di|in vo- i|un tal de- *|* * * si-|o,di ve- der chiu-|sa'e spen- sa|
 d2 d4 f2- | f2 B4 A2 | d3 c de f2- | fe/d/ e2 f2 d2- | d2 c2 d2 G2 | z2 g2 f2 d2 | d2 e2 f2 d2- | %29
w: la mia vi-|||* * * * ta, la|_ mia vi- ta,|per far in|cio vo- stra vo-|
 dcBA B2 A2- | AG G4 F2 | GABc d2 c2- | c2 B2 A4 | G2 g2 f2 d2 | e2 f3 d g2- | g2 f2 g2 d2 | %36
w: * * * * * gli-|* a com- i-|ta, _ _ _ _ com-|* pi- *|ta, forz' e ch'i-|o mo- * *|* * ra, et|
 d2 e2 f2 g2- | gf/e/ f2 g4 | z2 c2 A2 B2 | G2 A2 BABc | de d3 c/B/ c2 | d6 Bc | de f2 d3 f | %43
w: so che voi n'ha-|* * * re- te,|tan- to pia-|cerch'al fin _ _ _ _|_ _ _ _ _ _|* voi _|_ _ _ mo- ri-|
"^#" e2 d4 c2 | d2 f2 e2 f2 | d2 g3 f/e/ f2 | g8 | G8- | G8 |] %49
w: re- * *|te, mo- ri- re-|||te.|_|
V:2
 z8 | z4 G4 | A2 c2 c2 B2 | c3 B A4- | A2 G2 A2 c2- |"^-natural""^-natural" cB/A/ B2 c2 G2 | %6
w: |Non|mi duol il mo-|ri- * *||* * * * re, don-|
 G2 G2 c2 G2 | A3 G AB c2- | cB/A/ B2 c3 B | A6 G2 | A2 c3 B/A/ B2 | c2 G2 B2 B2 | A4 B4 | %13
w: na per voi, ma|ben _ _ _ _|_ _ _ _ _ _|* di|vo- stra sor- * *|te, che mo- rir|vi ve-|
 G2 G2 A2 B2 | G2 c3 B/A/ B2 | A4 G2 B2 | B2 A2 B2 c2 | d2 A3 GAB | c2 A2 B4 | A4 G4 | %20
w: dro de la mia|mor- * * * *|* te, per-|che veg- gen- d'in|voi un _ _ _|_ tal de-|si- o,|
 z2 G2 G2 F2 | G2 B4 AG | A2 B4 A2- | A2 G4 F2 | G2 B4 A2 | G4 F4 | z2 F2 F2 E2 | F2 G2 A2 B2 | %28
w: di ve- der|chiu- sa'e _ _|_ spen- ta|_ la mi-|a vi- *|* ta,|per far in|cio vo- stra vo-|
 A2 G4 F2 | G4 z4 | z8 |"^b" z2 G2 F2 E2 | F2 G3 F/E/ F2 | G4 z2 B2 | B2 A4 G2 | A4 z2 G2 | %36
w: glia com- pi-|ta,||forz' e ch'io|mo- * * * *|ra, forz'|e ch'io mo-|ra, et|
 B2 c2 d2 B2 | A4 G2 D2 | D2 E2 F2 G2- | GF/E/ F2 G4 | z8 | z2 D2 F2 G2 | A2 F2 B3 A | G2 F2 E4 | %44
w: so che voi n'ha-|re- te, et|so che voi n'ha-|* * * re- te,||tan- to pia-|cer ch'al fin voi|mo- ri- re-|
 D2 A2 A2 A2 | B2 B2 A4 | G8- | G8- | G8 |] %49
w: te, al fin voi|mo- ri- re-|te.|_||
V:3
 z8 | z8 | z8 | C,4 D,2 F,2 | F,2 E,2 F,3 E, | D,4 C,4 | z2 C,2 C,2 C,2 | F,8 | G,4 z2 C,2 | %9
w: |||Non mi duol|il mo- ri- *|* re,|don- na per|vo-|i, ma|
 D,2 F,2 F,2 E,2 | F,2 C,2 D,4 | C,4 G,4 | z2 F,2 G,2 G,2 | C,2 C,2 F,2 B,,2 | C,2 C,2 G,,4 | %15
w: ben di vo- stra|sor- * *|* te,|che mo- rir|vi ve- dro de|la mia mor-|
 D,4 z2 G,2 | G,2 F,2 G,2 C,2 | B,,C,D,E, F,2 F,2 | C,2 D,2 G,,2 G,2- | G,2 F,2 _E,2 C,2 | %20
w: te, per-|che veg- gen- d'in|voi _ _ _ _ un|tal de- si- o,|_ di ve- der|
 D,2 _E,4 D,2 |"^b" C,2 B,,2 E,4 | D,2 G,,A,, B,,C,D,E, | F,D, _E,2 D,4 | G,,4 z4 | z4 z2 B,,2 | %26
w: chiu- sa'e spen-|ta la mi-|a vi- * * * * *||ta,|per|
"^#" B,,2 A,,2 B,,2 C,2 | D,2 _E,2 D,2 G,2 | F,2 C,2 D,4 | G,,3 A,, B,,C, D,2 | C,2 B,,2 A,,4 | %31
w: far in cio vo-|stra vo- glia com-|pi- * *|||
 G,,4 z2 C,2 | B,,2 G,,2 D,4 | E,4 D,2 G,2 | G,2 F,2 D,2 _E,2 | D,4 G,,4 | z8 | z4 z2 G,,2 | %38
w: ta, forz'|e ch'io mo-|* ra, forz'|e ch'io mo- *|* ra,||et|
 B,,2 C,2 D,2 B,,2 | C,2 A,,2 G,,3 A,, |"^b" B,,C, D,2 E,4 |"^#""^#""^b" D,2 B,,2 B,,2 E,2 | %42
w: so che voi n'ha-|re- * * *||te, tan- to pia-|
 D,2 D,2 G,,2 B,,2 | C,2 D,2 A,,4 | D,4 C,2 F,2 | G,4 D,4 | G,,2 C,4 B,,2 | C,4 G,,4- | G,,8 |] %49
w: cer ch'al fin voi|mo- ri- re-|te, al fin|voi mo-|ri- re- *|* te.|_|

